Pods/ProtonCore-UIFoundations/libraries/UIFoundations/Sources/Assets.xcassets/Images/IconSet/ic-checkmark-triple.imageset/ic-checkmark-triple.svg

<svg width="24" height="24" viewBox="0 0 24 24" fill="none" xmlns="http://www.w3.org/2000/svg">
<path fill-rule="evenodd" clip-rule="evenodd" d="M18.1539 1.71837C18.4476 2.01062 18.4488 2.4857 18.1567 2.77949L11.6115 9.36219C11.1997 9.77633 10.5293 9.77484 10.1193 9.35886L6.59092 5.77843C6.30011 5.48334 6.30348 5.00827 6.59845 4.71733C6.89341 4.4264 7.36827 4.42977 7.65908 4.72486L10.8685 7.98157L17.0933 1.72116C17.3854 1.42737 17.8603 1.42612 18.1539 1.71837ZM18.151 14.4711C18.4463 14.7618 18.4501 15.2368 18.1597 15.5322L11.6165 22.1862C11.2026 22.6072 10.5233 22.6042 10.113 22.1796L6.58574 18.5288C6.29786 18.2309 6.30593 17.7559 6.60375 17.4678C6.90158 17.1798 7.37638 17.1879 7.66426 17.4859L10.8708 20.8047L17.0904 14.4798C17.3808 14.1844 17.8557 14.1805 18.151 14.4711ZM18.1583 9.53078C18.4495 9.23613 18.4469 8.76105 18.1524 8.46967C17.8578 8.17829 17.383 8.18095 17.0917 8.4756L10.8697 14.7703L7.66185 11.4806C7.37261 11.1839 6.89777 11.1781 6.60127 11.4674C6.30478 11.7568 6.2989 12.2318 6.58815 12.5285L10.116 16.1463C10.5261 16.5668 11.2012 16.5691 11.6142 16.1514L18.1583 9.53078Z" fill="#0C0C14"/>
</svg>

<svg xmlns="http://www.w3.org/2000/svg" width="24" height="24" viewBox="0 0 24 24">
  <g class="ic-checkmark-triple">
    <path fill-rule="evenodd" d="M18.154 1.718a.75.75 0 0 1 .003 1.061L11.61 9.362a1.05 1.05 0 0 1-1.492-.003L6.59 5.779a.75.75 0 0 1 1.068-1.054l3.21 3.257 6.224-6.26a.75.75 0 0 1 1.06-.004Zm-.003 12.753c.295.29.3.766.009 1.061l-6.543 6.654a1.05 1.05 0 0 1-1.504-.006l-3.527-3.651a.75.75 0 0 1 1.078-1.043l3.207 3.319 6.22-6.325a.75.75 0 0 1 1.06-.009Zm.007-4.94a.75.75 0 0 0-1.066-1.055L10.87 14.77l-3.208-3.29a.75.75 0 1 0-1.074 1.048l3.528 3.618a1.05 1.05 0 0 0 1.498.005l6.544-6.62Z" class="Icon"/>
  </g>
</svg>
